X: 861
M: C
L: 1/8
K: C
V: 1
c |\
g |\
ecac (ed/c/) gc | (f/e/f/g/ a)e
fddg |\
ecgc (e/d/c) gc | (e/f/g) df eccg |\
ecgc (e/d/c) gc | (f/e/f/g/ a)e fddf |\
(e/d/c) (d/c/B) (c/B/A) (G/F/E) | (C/D/E/F/) GD ECC |]
V: 2 clef=bass middle=d
z |\
c2c2 c2c2 | c2c2 d2d2 |\
c2c2 c2c2 | G2G2 C2C :|\
z |\
c2c2 c2c2 | c2c2
d2d2 |\
c2c2 c2c2 | G2G2 C2C2 |\
c2c2 c2c2 | c2c2 d2d2 |\
c2c2 c2c2 | G2G2 C2C |]

